X: 19468
T: Jackson's Mare
R: reel
M: 4/4
K: Fdorian
d2 AB B2 AG|^FG Ac A2 Bc|d2 AB B2 AG|^FA dc BG G2|
dg g^f g2 e^f|^fg a^f g2 ab|ga ^fg2a g^f|dc AA ^ ^F2 d-|
dA BB2A G^F|GA cA2B cd-|dA BB2A G^F|Ad cB G G2 d|
gg ^fg2e ^f^f|ga ^fg2a bg|a^f g2 ag ^fd|cA A^F ^F2 c2|
Ac c=f af ef|ga ^ae f=a ^ae|f=a c2 fa (3ga^a|eg gf f2 cB|
c=A FG AF GA|^Ac dD D2 cB|c=A FG A2 ^ag|ge ge f2 c2|
=Ac cf af ef|ga ^ae f=a ^ae|f=a c2 fa (3ga^a|eg gf f2 cB|
c=A FG AF GA|^Ac dD D2 cB|c=A FG A2 ^ag|ge ge f2||

